X: 1
T: Murphy's Hound
M: 4/4
L: 1/8
R: reel
K: Gmaj
edBA ~G3A|(3Bcd ef g2fg|edBA GFGA |Bded BA ~A2|
edBA ~G3A|(3Bcd ef ~g3a|bgaf gfed|egdB BA ~A2||
ea ~a2 bgag|eaaf g2fg|ea ~a2 bgag|egdB BA ~A2|
ea ~a2 bgag|egfa ~g3a|bgaf gfed|(3Bcd ef g2fg||
